brandFactory_export/1.Light/Me gusta_1Light.svg

<?xml version="1.0" encoding="UTF-8"?>
<svg width="24px" height="24px" viewBox="0 0 24 24" version="1.1" xmlns="http://www.w3.org/2000/svg" xmlns:xlink="http://www.w3.org/1999/xlink">
    <title>1.Light/Me gusta_1Light</title>
    <g id="Symbols" stroke="none" stroke-width="1" fill="none" fill-rule="evenodd">
        <g id="1.Light/Me-gusta_1Light" fill="#5CB615" fill-rule="nonzero">
            <path d="M11.8521008,23.5764706 C11.805042,23.5764706 11.7613445,23.5764706 11.7210084,23.5731092 L11.7042017,23.5731092 C11.5563025,23.5663866 11.4084034,23.5428571 11.2638655,23.5092437 C10.7428571,23.3915966 10.2487395,23.1697479 9.81512605,22.8537815 C9.38487395,22.5445378 8.82689076,22.0168067 8.44369748,21.6235294 C6.49747899,19.6168067 5.36134454,18.194958 3.9394958,15.9831933 C2.15798319,13.2268908 0.937815126,10.487395 0.309243697,7.8487395 C-0.349579832,5.07563025 0.178151261,2.78319328 1.80168067,1.39495798 C2.74285714,0.58487395 4.03361345,0.100840336 5.43529412,0.0268907563 C6.92436975,-0.0470588235 8.47058824,0.332773109 9.9092437,1.13277311 C10.4168067,1.41176471 10.9378151,1.71428571 11.5092437,2.05042017 C11.7344538,2.17478992 12.010084,2.17815126 12.2352941,2.05378151 C12.8033613,1.71428571 13.3277311,1.41512605 13.8386555,1.13277311 C15.2739496,0.332773109 16.8235294,-0.0470588235 18.312605,0.0268907563 C19.7142857,0.0974789916 21.0016807,0.58487395 21.9462185,1.39159664 C23.5663866,2.77983193 24.0941176,5.07226891 23.4352941,7.8487395 C22.8067227,10.4840336 21.5865546,13.2201681 19.8084034,15.9831933 C18.3932773,18.1815126 17.2605042,19.6 15.3378151,21.5865546 C15.3277311,21.6 15.3176471,21.610084 15.307563,21.6235294 C14.9277311,22.0168067 14.3663866,22.5478992 13.9361345,22.8537815 C13.502521,23.1697479 13.0084034,23.3915966 12.487395,23.5092437 C12.3428571,23.5428571 12.194958,23.5630252 12.0470588,23.5731092 L12.0302521,23.5731092 C11.9831933,23.5764706 11.9327731,23.5764706 11.8756303,23.5764706 L11.8521008,23.5764706 Z M5.81176471,0.692436975 C5.69747899,0.692436975 5.58319328,0.695798319 5.46890756,0.702521008 C4.21848739,0.766386555 3.06890756,1.19327731 2.23865546,1.90588235 C1.51932773,2.5210084 1.0487395,3.34117647 0.83697479,4.3394958 C0.628571429,5.3210084 0.672268908,6.45042017 0.968067227,7.69411765 C1.57983193,10.2588235 2.7697479,12.9243697 4.50420168,15.6201681 C5.91596639,17.8151261 6.99159664,19.1596639 8.92436975,21.1563025 C9.28403361,21.5294118 9.81176471,22.0268908 10.205042,22.3092437 C10.5647059,22.5714286 10.9714286,22.7563025 11.405042,22.8504202 L11.4151261,22.8537815 C11.5226891,22.8806723 11.6336134,22.8941176 11.7445378,22.9008403 L11.7546218,22.9008403 C11.7848739,22.9008403 11.8252101,22.9042017 11.8689076,22.9042017 L11.8722689,22.9042017 C11.9159664,22.9042017 11.9529412,22.9042017 11.9865546,22.9008403 L12,22.9008403 C12.1109244,22.8941176 12.2218487,22.8806723 12.3294118,22.8537815 L12.3394958,22.8504202 C12.7731092,22.7529412 13.1798319,22.5680672 13.5394958,22.3092437 C13.9193277,22.0336134 14.4268908,21.5596639 14.7865546,21.189916 C14.7966387,21.1764706 14.8067227,21.1663866 14.8168067,21.1563025 C16.7529412,19.1596639 17.8252101,17.8151261 19.2403361,15.6201681 C20.9781513,12.9210084 22.1680672,10.2554622 22.7798319,7.69411765 C23.0756303,6.45042017 23.1193277,5.3210084 22.9109244,4.3394958 C22.6991597,3.34117647 22.2252101,2.5210084 21.5058824,1.90588235 C20.6756303,1.19327731 19.5294118,0.766386555 18.2756303,0.702521008 C16.9109244,0.631932773 15.4890756,0.98487395 14.1613445,1.7210084 C13.6571429,2 13.1361345,2.29915966 12.5714286,2.63529412 L12.5647059,2.63865546 C12.1310924,2.88403361 11.5966387,2.88067227 11.1663866,2.63529412 L11.1630252,2.63193277 C10.5983193,2.29579832 10.0806723,2 9.57983193,1.7210084 C8.36638655,1.04537815 7.06890756,0.692436975 5.81176471,0.692436975 Z" id="Me-gusta_1Light"></path>
        </g>
    </g>
</svg>

<svg width="24" height="24" viewBox="0 0 24 24" xmlns="http://www.w3.org/2000/svg"><path d="M11.852 23.576c-.047 0-.09 0-.131-.003h-.017a2.44 2.44 0 01-.44-.064 3.93 3.93 0 01-1.449-.655c-.43-.31-.988-.837-1.371-1.23-1.947-2.007-3.083-3.429-4.505-5.64C2.158 13.226.938 10.486.31 7.848-.35 5.076.18 2.783 1.802 1.395 2.742.585 4.034.101 5.435.027c1.49-.074 3.036.306 4.474 1.106.508.279 1.029.581 1.6.917.225.125.501.128.726.004.568-.34 1.093-.639 1.604-.921 1.435-.8 2.985-1.18 4.474-1.106 1.401.07 2.689.558 3.633 1.365 1.62 1.388 2.148 3.68 1.49 6.457-.63 2.635-1.85 5.371-3.628 8.134-1.415 2.199-2.547 3.617-4.47 5.604-.01.013-.02.023-.03.037-.38.393-.942.924-1.372 1.23a3.93 3.93 0 01-1.449.655 2.78 2.78 0 01-.44.064h-.017c-.047.003-.097.003-.154.003h-.024zM5.812.692c-.115 0-.229.004-.343.01-1.25.064-2.4.491-3.23 1.204-.72.615-1.19 1.435-1.402 2.433-.208.982-.165 2.111.131 3.355.612 2.565 1.802 5.23 3.536 7.926 1.412 2.195 2.488 3.54 4.42 5.536.36.373.888.87 1.281 1.153.36.262.766.447 1.2.541l.01.004c.108.027.219.04.33.047h.01c.03 0 .07.003.114.003h.003c.044 0 .08 0 .115-.003H12c.11-.007.222-.02.33-.047l.01-.004c.433-.097.84-.282 1.2-.54.38-.276.887-.75 1.247-1.12.01-.014.02-.024.03-.034 1.936-1.996 3.008-3.34 4.423-5.536 1.738-2.699 2.928-5.365 3.54-7.926.296-1.244.34-2.373.13-3.355-.21-.998-.685-1.818-1.404-2.433-.83-.713-1.977-1.14-3.23-1.203C16.91.632 15.489.985 14.16 1.72c-.504.279-1.025.578-1.59.914l-.006.004a1.42 1.42 0 01-1.399-.004l-.003-.003A62.834 62.834 0 009.58 1.72C8.366 1.045 7.069.692 5.812.692z" fill="#5CB615" fill-rule="nonzero"/></svg>
